X:1
T:Title
%%score 1 { 2 | 3 }
L:1/8
Q:1/4=108
M:6/8
K:A
V:1 treble nm="Grand Piano, Soprano"
V:2 bass nm="Choir Pad, Chiesa, 77.87"
V:3 bass 
V:1
 [Ec]3 [DB]2 [CA] | [FB]2 [FA] [EG]2 [DF] | E3 [CA]2 [EA] | [EG]2 [EA] [Ec]2 [EB] | %4
w: By~Theodore~Edson~Perkins,~1875 * *||||
 [Ec]3 [FA]2 [DF] | [CE]6 | [Ec]3 [FA]2 [DF] | [CE]3- [CE]3/2 z/ E | [DF]2 [EG] [EA]2 [Ec] | %9
w: |||||
 [DB]3 [CA]3- | [CA]6 |] %11
w: ||
V:2
 A,3 A,2 A, | A,2 A, A,2 A, | A,3 A,2 A, | D2 C A,2 G, | A,3 A,2 A, | A,6 | A,3 A,2 A, | %7
 A,3- A,3/2 z/ A, | A,2 B, A,2 A, | G,3 A,3- | A,6 |] %11
V:3
 A,,3 A,,2 A,, | D,2 D, D,2 D, | C,3 A,,2 C, | B,,2 A,, E,2 E, | A,,3 D,2 D, | A,,6 | A,,3 D,2 D, | %7
 A,,3- A,,3/2 z/ C, | D,2 D, C,2 A,, | E,3 A,,3- | A,,6 |] %11

